X: 35654
T: Sailor On The Rock, The
R: reel
M: 4/4
K: Dmajor
|:de|fedB A/B/A FA|A/B/A FA BA A2|fedB A/B/A FA|Be e/f/e e2 de|
fedB A/B/A FA|A/B/A FA BA A2|B/c/d cA Bg g/a/g|1 fgec d2:|2 fgec d2 de||
|:fgaf ~g2 ef|gfge dcBA|B/c/d cABg g/a/g|fgec dcBA|
fgaf ~g2 af|gfge dcBA|B/c/d cA Bgga|fdec d4:|

